X:1
T:Quia dixi
T:Orlando di Lasso
T:Quia dixi
C:Orlando di Lasso
%%score [ 1 2 3 ]
L:1/8
Q:1/4=90
M:4/4
K:C
V:1 treble nm="Soprano 1" snm="S 1"
V:2 treble nm="Soprano 2" snm="S 2"
V:3 treble nm="Alto" snm="A"
V:1
 z8 | z4 A4- | A2 A2 e4 | e4 z4 | z4 z2 c2 | c4 c2 e2- | e2 g4 f2- | ff e2 g4 | d2 g2 e2 f2- | %9
w: |Qui-|* a di-|xi:|ne-|quan- do su-|* per- gau-|* de- ant mi-|hi i- ni- mi-|
 f2 e2 d4 | c8 | z4 z2 c2 | B2 c4 d2 | e2 A2 d4- | d2 c2 c4 | d4 z2 A2 | ^G2 A4 B2 | c2 c2 B2 B2 | %18
w: * ci me-|i,|et|dum com- mo-|ven- tur pe-|* des me-|i, et|dum com- mo-|ven- tur pe- des|
 c4 c2 c2 | e2 e2 g4 | dcde f2 c2 | e8 | d4 A2 A2 | e2 e2 d3 e | f4 e2 e2 | edcB c2 c2 | B8 |] %27
w: me- i, su-|per me ma-|gna _ _ _ _ lo-|cu-|ti sunt, su-|per me ma- *|* gna lo-|cu- * * * * ti|sunt.|
V:2
 A6 A2 | c4 c4- | c8 | z2 G2 G4 | G2 A4 A2 | F3 F E2 c2- | c2 B2 c2 d2 | c2 c2 B3 A | B4 c2 AB | %9
w: Qui- a|di- xi:|_|ne- quan-|do su- per-|gau- de- ant mi-|* hi i- ni-|mi- ci me- *|* i, i- *|
 cd c4 B2 | A4 G2 AB | cA B2 c2 F2 | z4 F4 | E2 F4 G2 | A4 G2 A2- | A2 B2 c4 | B2 c2 c2 B2- | %17
w: * * * ni-|mi- ci me- *|* * * * i,|et|dum com- mo-|ven- tur pe-|* des me-|i, pe- des me-|
 BA A4 ^G2 | A4 z2 F2 | c2 c4 B2- | BABc d2 A2- | A2 G2 A2 c2- | cB/A/ B2 c4- | c2 G2 B2 B2 | %24
w: |i, su-|per me ma-|* * * * * gna|_ lo- cu- ti|_ _ _ _ sunt,|_ su- per me|
 d2 A4 G2 | cBAG A2 A2 | ^G8 |] %27
w: ma- gna lo-|cu- * * * * ti|sunt.|
V:3
 z4 A4- | A2 A2 F4 | F4 z2 C2 | C4 C2 E2- | E2 D2 F3 F | A4 A,4 | A,2 E4 D2 | A4 E2 G2- | %8
w: Qui-|* a di-|xi: ne-|quan- do su-|* per- gau- de-|ant mi-|hi i- ni-|mi- ci me-|
 GFEDCA, D2 | A,4 z4 | F4 E2 F2- | F2 G2 A4 | E4 z4 | z8 | F4 E2 F2- | F2 G2 A4 | E2 A,4 ^G,2 | %17
w: |i,|i- ni- mi-|* ci me-|i,||et dum com-|* mo- ven-|tur pe- des|
 A,4 E4 | z2 A,2 A2 A2 | A4 E2 E2 | G3 F/E/ D2 F2 | C4 z4 | z2 G2 F2 F2 | C4 G4 | D4 C4 | A,8 | %26
w: me- i,|su- per me|ma- gna lo-|cu- * * * ti|sunt,|su- per me|ma- gna|lo- cu-|ti|
 E8 |] %27
w: sunt.|

